Numix-GalliumOS/16/categories/applications-ide.svg

<?xml version="1.0" encoding="UTF-8" standalone="no"?>
<svg
   xmlns:dc="http://purl.org/dc/elements/1.1/"
   xmlns:cc="http://creativecommons.org/ns#"
   xmlns:rdf="http://www.w3.org/1999/02/22-rdf-syntax-ns#"
   xmlns:svg="http://www.w3.org/2000/svg"
   xmlns="http://www.w3.org/2000/svg"
   xmlns:sodipodi="http://sodipodi.sourceforge.net/DTD/sodipodi-0.dtd"
   xmlns:inkscape="http://www.inkscape.org/namespaces/inkscape"
   width="16"
   height="16"
   viewBox="0 0 16 16"
   id="svg2"
   version="1.1"
   inkscape:version="0.91 r"
   sodipodi:docname="applications-ide.svg">
  <metadata
     id="metadata10">
    <rdf:RDF>
      <cc:Work
         rdf:about="">
        <dc:format>image/svg+xml</dc:format>
        <dc:type
           rdf:resource="http://purl.org/dc/dcmitype/StillImage" />
      </cc:Work>
    </rdf:RDF>
  </metadata>
  <defs
     id="defs8" />
  <sodipodi:namedview
     pagecolor="#ffffff"
     bordercolor="#666666"
     borderopacity="1"
     objecttolerance="10"
     gridtolerance="10"
     guidetolerance="10"
     inkscape:pageopacity="0"
     inkscape:pageshadow="2"
     inkscape:window-width="640"
     inkscape:window-height="480"
     id="namedview6" />
  <path
     style="fill:#cc7d6f"
     d="M 13.128906 1.734375 C 12.941406 1.75 12.753906 1.84375 12.597656 1.992188 L 9.191406 4.953125 C 9.046875 5.097656 8.964844 5.296875 8.964844 5.496094 C 8.964844 5.597656 8.984375 5.683594 9.023438 5.769531 C 9.023438 5.773438 9.019531 5.78125 9.023438 5.785156 C 8.894531 6.054688 8.933594 6.429688 8.933594 7.246094 C 8.933594 7.542969 8.15625 7.859375 7.960938 7.859375 C 7.953125 7.859375 7.941406 7.859375 7.933594 7.859375 C 7.316406 7.859375 5.304688 7.953125 4.683594 8.804688 C 4.0625 9.660156 1.734375 13.535156 1.734375 14.101562 C 2.664062 14.101562 9.417969 10.726562 9.765625 10.410156 C 10.183594 10.023438 9.980469 9.25 9.707031 8.734375 C 9.710938 8.730469 9.707031 8.722656 9.707031 8.71875 C 9.714844 8.699219 9.71875 8.671875 9.695312 8.632812 C 9.550781 8.390625 9.464844 8.144531 9.464844 7.800781 C 9.464844 7.042969 9.542969 6.625 9.707031 6.386719 C 10.074219 6.449219 10.605469 6.269531 10.839844 6.042969 L 13.832031 3.191406 C 14.136719 2.902344 14.207031 2.457031 13.902344 2.164062 L 13.660156 1.921875 C 13.507812 1.773438 13.316406 1.71875 13.128906 1.734375 Z "
     id="path4" />
</svg>

<svg xmlns="http://www.w3.org/2000/svg" viewBox="0 0 16 16">
 <path d="m 13.13 1.734 c -0.188 0.016 -0.375 0.109 -0.531 0.258 l -3.406 2.961 c -0.145 0.145 -0.227 0.344 -0.227 0.543 c 0 0.102 0.02 0.188 0.059 0.273 c 0 0.004 -0.004 0.012 0 0.016 c -0.129 0.27 -0.09 0.645 -0.09 1.461 c 0 0.297 -0.777 0.613 -0.973 0.613 c -0.008 0 -0.02 0 -0.027 0 c -0.617 0 -2.629 0.094 -3.25 0.945 c -0.621 0.855 -2.949 4.73 -2.949 5.297 c 0.93 0 7.684 -3.375 8.03 -3.691 c 0.418 -0.387 0.215 -1.16 -0.059 -1.676 c 0.004 -0.004 0 -0.012 0 -0.016 c 0.008 -0.02 0.012 -0.047 -0.012 -0.086 c -0.145 -0.242 -0.23 -0.488 -0.23 -0.832 c 0 -0.758 0.078 -1.176 0.242 -1.414 c 0.367 0.063 0.898 -0.117 1.133 -0.344 l 2.992 -2.852 c 0.305 -0.289 0.375 -0.734 0.07 -1.027 l -0.242 -0.242 c -0.152 -0.148 -0.344 -0.203 -0.531 -0.188 Z" style="fill:#cc7d6f"/>
</svg>
